clients/chineselasers/about-us/images/vis.svg

<svg width="30" height="30" xmlns="http://www.w3.org/2000/svg">

 <g>
  <title>background</title>
  <rect fill="none" id="canvas_background" height="402" width="582" y="-1" x="-1"/>
 </g>
 <g>
  <title>Layer 1</title>
  <path id="svg_1" fill="#25c485" d="m23,12.7c-0.4,0.1 -0.6,0.6 -0.4,1c0.5,1.2 0.7,2.5 0.7,3.8c0,6 -4.9,10.8 -10.8,10.8s-10.8,-4.8 -10.8,-10.8s4.8,-10.8 10.8,-10.8c1.1,0 2.3,0.2 3.4,0.5c0.4,0.1 0.8,-0.1 0.9,-0.5c0.1,-0.4 -0.1,-0.8 -0.5,-0.9c-1.2,-0.4 -2.5,-0.6 -3.8,-0.6c-6.8,0 -12.3,5.5 -12.3,12.3s5.5,12.3 12.3,12.3s12.3,-5.5 12.3,-12.3c0,-1.5 -0.3,-3 -0.8,-4.4c-0.1,-0.3 -0.6,-0.5 -1,-0.4zm-10.5,2.3c0.4,0 0.8,-0.3 0.8,-0.8s-0.3,-0.8 -0.8,-0.8c-2.2,0 -4,1.8 -4,4c0,2.2 1.8,4 4,4s4,-1.8 4,-4c0,-0.4 -0.3,-0.8 -0.8,-0.8s-0.7,0.5 -0.7,0.9c0,1.4 -1.1,2.5 -2.5,2.5s-2.5,-1.1 -2.5,-2.5c0,-1.4 1.1,-2.5 2.5,-2.5zm3.7,-3.9c0.2,-0.4 0,-0.8 -0.4,-1c-1,-0.5 -2.2,-0.7 -3.3,-0.7c-4.5,0 -8.2,3.6 -8.2,8.1s3.7,8.2 8.2,8.2s8.2,-3.7 8.2,-8.2c0,-1.2 -0.2,-2.3 -0.7,-3.3c-0.2,-0.4 -0.6,-0.6 -1,-0.4c-0.4,0.2 -0.5,0.6 -0.4,1c0.4,0.9 0.6,1.8 0.6,2.7c0,3.7 -3,6.7 -6.7,6.7s-6.7,-3 -6.7,-6.7s3,-6.7 6.7,-6.7c1,0 1.9,0.2 2.7,0.6c0.4,0.2 0.8,0 1,-0.3zm13.6,-5c-0.1,-0.3 -0.3,-0.5 -0.6,-0.5l-4.1,-0.7l-0.7,-4.1c0,-0.3 -0.2,-0.5 -0.5,-0.6c-0.3,-0.1 -0.6,0 -0.8,0.2l-4.9,4.9c-0.2,0.2 -0.3,0.4 -0.2,0.7l0.8,4.2l-6.3,6.3c0,0 -0.1,0 -0.1,0c-0.6,0 -1.1,0.5 -1.1,1.1s0.5,1.1 1.1,1.1c0.6,0 1.1,-0.5 1.1,-1.1c0,0 0,0 0,0l6.4,-6.4l4.1,0.8c0,0 0.1,0 0.1,0c0.2,0 0.4,-0.1 0.5,-0.2l4.9,-4.9c0.3,-0.2 0.4,-0.5 0.3,-0.8zm-10.2,-0.1l3.6,-3.6l0.5,2.8l-3.5,3.5l-0.6,-2.7zm4.4,4.4l-2.7,-0.5l3.5,-3.5l2.7,0.5l-3.5,3.5z"/>
 </g>
</svg>

<?xml version="1.0" encoding="utf-8"?>
<!-- Generator: Adobe Illustrator 13.0.0, SVG Export Plug-In . SVG Version: 6.00 Build 14948)  -->
<!DOCTYPE svg PUBLIC "-//W3C//DTD SVG 1.1//EN" "http://www.w3.org/Graphics/SVG/1.1/DTD/svg11.dtd">
<svg version="1.1" id="Layer_1" xmlns="http://www.w3.org/2000/svg" xmlns:xlink="http://www.w3.org/1999/xlink" x="0px" y="0px"
	 width="30px" height="30px" viewBox="0 0 30 30" enable-background="new 0 0 30 30" xml:space="preserve">
<g>
	<title>Layer 1</title>
	<path id="svg_1" fill="#2193A8" d="M23,12.7c-0.4,0.1-0.6,0.6-0.4,1c0.5,1.2,0.7,2.5,0.7,3.8c0,6-4.899,10.8-10.8,10.8
		c-5.9,0-10.8-4.8-10.8-10.8S6.5,6.7,12.5,6.7c1.1,0,2.3,0.2,3.4,0.5C16.3,7.3,16.7,7.1,16.8,6.7c0.101-0.4-0.1-0.8-0.5-0.9
		c-1.2-0.4-2.5-0.6-3.8-0.6c-6.8,0-12.3,5.5-12.3,12.3s5.5,12.3,12.3,12.3s12.3-5.5,12.3-12.3c0-1.5-0.3-3-0.8-4.4
		C23.9,12.8,23.4,12.6,23,12.7z M12.5,15c0.4,0,0.8-0.3,0.8-0.8s-0.3-0.8-0.8-0.8c-2.2,0-4,1.8-4,4c0,2.199,1.8,4,4,4s4-1.801,4-4
		c0-0.4-0.3-0.801-0.8-0.801S15,17.1,15,17.5c0,1.4-1.1,2.5-2.5,2.5S10,18.9,10,17.5S11.1,15,12.5,15z M16.2,11.1
		c0.2-0.4,0-0.8-0.4-1c-1-0.5-2.2-0.7-3.3-0.7C8,9.4,4.3,13,4.3,17.5s3.7,8.2,8.2,8.2s8.2-3.7,8.2-8.2c0-1.2-0.2-2.3-0.7-3.3
		c-0.2-0.4-0.6-0.6-1-0.4c-0.4,0.2-0.5,0.6-0.4,1c0.4,0.9,0.603,1.8,0.603,2.7c0,3.7-3,6.7-6.7,6.7s-6.7-3-6.7-6.7s3-6.7,6.7-6.7
		c1,0,1.9,0.2,2.7,0.6C15.6,11.6,16,11.4,16.2,11.1z M29.8,6.1c-0.1-0.3-0.3-0.5-0.6-0.5L25.1,4.9L24.4,0.8c0-0.3-0.2-0.5-0.5-0.6
		C23.6,0.1,23.3,0.2,23.1,0.4L18.2,5.3C18,5.5,17.9,5.7,18,6l0.8,4.2l-6.3,6.3h-0.1c-0.6,0-1.1,0.5-1.1,1.1
		c0,0.603,0.5,1.103,1.1,1.103s1.1-0.5,1.1-1.103l0,0l6.4-6.397L24,12h0.1c0.2,0,0.4-0.1,0.5-0.2l4.9-4.9
		C29.8,6.7,29.9,6.4,29.8,6.1z M19.6,6L23.2,2.4l0.5,2.8l-3.5,3.5L19.6,6z M24,10.4l-2.7-0.5l3.5-3.5l2.7,0.5L24,10.4z"/>
</g>
</svg>
